christian-jacobsen/hypernet/hypernet/database/air/thermo/O2_bin/Q/RVE27.csv
,Q1,Q2,Q3,Q4,Q5,Q6,Q7,Q8,Q9,Q10,Q11,Q12,Q13,Q14,Q15,Q16,Q17,Q18,Q19,Q20,Q21,Q22,Q23,Q24,Q25,Q26,Q27
-3,-6.6443385141e+07,-5.1919686488e+07,-5.2931300910e+07,-4.8088067277e+07,-4.8241477660e+07,-4.9697699273e+07,-4.7391105777e+07,-4.8302464020e+07,-4.7671522184e+07,-4.7730365160e+07,-4.7924912742e+07,-4.6963361727e+07,-4.7342718547e+07,-4.7612727715e+07,-4.6954877336e+07,-4.7634646582e+07,-5.0205840555e+07,-4.2015977219e+07,-4.4124850066e+07,-4.3004533254e+07,-4.3147755342e+07,-4.3080276031e+07,-4.4546725707e+07,-4.0784080551e+07,-4.3212253121e+07,-3.9715168850e+07,-3.3216770463e+07
-2,5.5815713133e+05,4.7125333813e+05,4.5909671295e+05,4.2273133566e+05,4.2683314343e+05,4.3485929407e+05,4.1828393494e+05,4.2260402969e+05,4.1807044714e+05,4.1741279834e+05,4.2062589066e+05,4.1602715002e+05,4.1586049075e+05,4.1831286081e+05,4.1366858856e+05,4.1850354312e+05,4.4281320023e+05,3.7215183052e+05,3.8617191812e+05,3.8005767035e+05,3.8124503365e+05,3.7994725241e+05,3.9731722102e+05,3.6826694113e+05,3.7844465416e+05,3.6177375592e+05,3.0652081793e+05
-1,-1.9281538996e+03,-5.3858681918e+03,-8.8094506724e+03,-1.2346845489e+04,-1.5870180258e+04,-1.9410221100e+04,-2.2978989760e+04,-2.6491080104e+04,-3.0060832218e+04,-3.3618458006e+04,-3.7193234605e+04,-4.0768064436e+04,-4.4312474808e+04,-4.7887409712e+04,-5.1458329493e+04,-5.5005118824e+04,-5.8617529414e+04,-6.2029709534e+04,-6.5553170939e+04,-6.9163813129e+04,-7.2697124148e+04,-7.6247893744e+04,-7.9826210496e+04,-8.3409922484e+04,-8.6884244713e+04,-9.0491851169e+04,-9.3958669590e+04
0,8.0351932096e+00,8.8174097087e+00,9.2676456291e+00,9.5879256437e+00,9.8526851381e+00,1.0078066577e+01,1.0257011622e+01,1.0434069774e+01,1.0588929955e+01,1.0735517913e+01,1.0875937302e+01,1.1005005902e+01,1.1136321316e+01,1.1268182059e+01,1.1399586856e+01,1.1553230809e+01,1.1816779649e+01,1.1610152955e+01,1.1458188677e+01,1.1291309815e+01,1.1127533986e+01,1.0959753732e+01,1.0764153004e+01,1.0527195493e+01,1.0267663146e+01,9.9297958624e+00,9.4238152144e+00
1,5.0310945852e-05,3.6719125347e-05,4.8487914853e-05,4.6481827113e-05,4.5973476745e-05,5.0129953948e-05,4.5243171471e-05,4.9620742558e-05,4.8500429472e-05,4.9449460249e-05,4.9834238126e-05,4.7123533321e-05,4.9241729016e-05,4.9419910496e-05,4.7335112185e-05,4.7505795152e-05,4.3781230545e-05,4.6514938376e-05,5.2891490313e-05,4.7906145340e-05,4.9361776220e-05,5.0512160087e-05,5.1748365976e-05,4.3009305799e-05,5.2542546513e-05,4.6632659355e-05,3.9633045539e-05
2,-8.1788903948e-09,-5.8312858535e-09,-7.5990566652e-09,-7.2382376204e-09,-7.1465457580e-09,-7.7721212730e-09,-7.0285829205e-09,-7.6814686070e-09,-7.5093414577e-09,-7.6471033984e-09,-7.7049572660e-09,-7.2973903205e-09,-7.6116827667e-09,-7.6417386308e-09,-7.3287668018e-09,-7.3627276567e-09,-6.8532219413e-09,-7.1244588319e-09,-8.0775754349e-09,-7.3393258311e-09,-7.5516017918e-09,-7.7057665596e-09,-7.9093013857e-09,-6.5914095310e-09,-8.0044339889e-09,-7.0883923071e-09,-5.9710211497e-09
3,6.7918811165e-13,4.7793644483e-13,6.1801773001e-13,5.8646628550e-13,5.7843712764e-13,6.2806159047e-13,5.6870807459e-13,6.2018936663e-13,6.0636406861e-13,6.1704045643e-13,6.2161957837e-13,5.8931390990e-13,6.1402094109e-13,6.1656352944e-13,5.9178602850e-13,5.9488599798e-13,5.5702963663e-13,5.7161655958e-13,6.4688035185e-13,5.8892651472e-13,6.0542764213e-13,6.1674118910e-13,6.3370180964e-13,5.2906976556e-13,6.4008912395e-13,5.6611914888e-13,4.7441926990e-13
4,-2.7683399480e-17,-1.9321638665e-17,-2.4860185353e-17,-2.3533970644e-17,-2.3196219216e-17,-2.5159546617e-17,-2.2801942841e-17,-2.4830254106e-17,-2.4278788560e-17,-2.4694501140e-17,-2.4875264222e-17,-2.3597881514e-17,-2.4569401162e-17,-2.4674160834e-17,-2.3695354254e-17,-2.3828702141e-17,-2.2399483219e-17,-2.2793039237e-17,-2.5761359391e-17,-2.3484818797e-17,-2.4128685885e-17,-2.4552444890e-17,-2.5244168474e-17,-2.1102903471e-17,-2.5467026434e-17,-2.2506104280e-17,-1.8798611039e-17
5,4.3841296935e-22,3.0430484250e-22,3.9018394711e-22,3.6875275089e-22,3.6329235017e-22,3.9374825398e-22,3.5707724385e-22,3.8844580530e-22,3.7984237941e-22,3.8621753298e-22,3.8901610598e-22,3.6920975438e-22,3.8421437020e-22,3.8588496460e-22,3.7071902377e-22,3.7290468025e-22,3.5149213211e-22,3.5558106561e-22,4.0152131148e-22,3.6638762914e-22,3.7627671767e-22,3.8259163046e-22,3.9354218419e-22,3.2928895030e-22,3.9667829559e-22,3.5037057287e-22,2.9199777609e-22
